teeny/solid/nextjs.svg

<svg width="15" height="15" viewBox="0 0 15 15" fill="none" xmlns="http://www.w3.org/2000/svg">
<path fill-rule="evenodd" clip-rule="evenodd" d="M0 7.5C0 3.35786 3.35786 0 7.5 0C11.6421 0 15 3.35786 15 7.5C15 10.087 13.6902 12.3681 11.6975 13.7163L4.90687 4.20942C4.78053 4.03255 4.5544 3.95756 4.34741 4.02389C4.14042 4.09022 4 4.28268 4 4.50004V12H5V6.06027L10.8299 14.2221C9.82661 14.7201 8.696 15 7.5 15C3.35786 15 0 11.6421 0 7.5ZM10 10V4H11V10H10Z" fill="black"/>
</svg>

<svg viewBox="0 0 15 15" xmlns="http://www.w3.org/2000/svg"><path fill-rule="evenodd" d="M0 7.5C0 3.35 3.35 0 7.5 0 11.64 0 15 3.35 15 7.5c0 2.58-1.31 4.86-3.31 6.21L4.89 4.2c-.13-.18-.36-.26-.56-.19 -.21.06-.35.25-.35.47v7.49h1V6.03l5.82 8.16c-1.01.49-2.14.77-3.33.77 -4.15 0-7.5-3.36-7.5-7.5ZM10 10V4h1v6h-1Z"/></svg>
